X:1
T:A minor Oliver Holden, 1806
T:Moses Browne, 1739 886. 886.
T:Review
T:Transcribed from The Psalmodist's Assistant, 1806.
%%score [ 1 2 3 4 ]
L:1/8
M:4/4
K:C
V:1 treble nm="Treble" snm="Tr."
V:2 treble nm="Counter" snm="C."
V:3 treble-8 nm="Tenor" snm="T."
V:4 bass nm="Bass" snm="B."
V:1
 A4 A2 G2 | c2 c2 A2 A2 | ^G4 c4 | B2 G2 B2 c2 | (A2 B2) c4 | B6 B2 | c2 c2 B2 B2 | A8 | A4 A2 B2 | %9
w: 1.~When with my|mind de- vout- ly|pressed, Dear|Sa- vior, my re-|sol- * ving|breast Would|past of- fen- ses|trace;|Trem- bling I|
 c2 c2 B2 c2 | d4 c4 | e2 c2 B2 c2 | c2 d2 c4 || A4 A4 | B4 c2 A^G | A8 |] %16
w: make the black re-|view, Yet|pleased, be- hold, ad-|mir- ing too,|The power|of chan- ging *|grace.|
V:2
 E4 E2 G2 | E2 E2 E2 E2 | E4 E4 | G2 G2 G2 G2 | E4 E4 | E6 E2 | E2 E2 E2 E2 | E8 | E4 E2 D2 | %9
w: 2.~This tongue with|bles- phe- mies de-|filed, These|feet to er- ring|paths be-|guiled, In|heav'n- ly league a-|gree:|Who would be-|
 C2 G2 G2 G2 | G4 G4 | G2 E2 E2 E2 | E2 F2 E4 || E4 C4 | G4 E2 E2 | E8 |] %16
w: lieve such lips could|praise, Or|think from dark and|win- ding ways,|I e'er|should turn to|thee?|
V:3
 A4 E2 D2 | E2 G2 c2 A2 | B4 e4 | d2 c2 d2 e2 | (c2 B2) A4 | B6 E2 | A2 A2 BA ^G2 | A8 | %8
w: 3.~These eyes that|once a- bused the|light, Now|lift to thee their|wat- * ery|sight, And|weep a si- * lent|flood,|
 cBcd e2 g2 | f2 e2 d2 c2 | B4 (e3 d) | cB A2 ^G2 A2 | E2 D2 E4 || (c3 d) e4 | d4 ec B2 | A8 |] %16
w: These * * * hands are|raised in cease- less|prayer; O *|wash * a- way the|stains they wear,|In * pure|re- dee- * ming|blood.|
V:4
 A,,4 A,,2 B,,2 | C,2 C,2 E,2 E,2 | E,4 C,4 | G,2 G,2 G,2 C,2 | E,4 A,4 | E,6 E,2 | %6
w: 4.~These ears that|once could en- ter-|tain The|mid- night oath, the|lust- ful|strain, A-|
w: 5.~Thus art thou|served in eve- ry|part, Go|on, blest Lord, to|cleanse my|heart, That|
 E,2 E,2 E,2 E,2 | A,,8 | A,^G,A,B, C2 B,2 | A,2 E,2 G,2 G,2 | %10
w: round the fes- tive|board:|Now * * * deaf to|all th'en- chan- ting|
w: dros- sy thing re-|fine;|That * * * grace may|na- ture's pow'rs con-|
"^____________________________________________\nEdited by B. C. Johnston, 2015.  \nMeasure 1, Counter: last note changed from F to G." G,4 C,4 | %11
w: noise, A-|
w: trol, And|
 E,2 E,2 E,2 D,2 | C,2 B,,2 A,,4 || (A,3 B,) C4 | G,4 C,D, E,2 | A,,8 |] %16
w: void the throng, de-|test the joys,|And * long|to hear * thy|word.|
w: a new crea- ture,|bo- dy, soul,|Be * all|and whol- * ly|thine!|

